X: 102
M:C|
L:1/8
K:D
udB"^Segno"|\
dBAB defe | dBAF BEE2 | dBAB defe | dBAF ADD2 |]
abag defe | dBAF BEE2 | abaf defe | dBAF ADD2 |
abag defe | abaf bgeg | faef defe | dBAF (AD)D2 |]
defe defe | dBAF BEE2 | dfef defe | dBAF ADD2 |
defe defe | dBAF BEE2 | dfef defe | dBAF ADD2 "^Segno"|]

